X: 46
T:Lay Dee at De
M:4/4
L:1/8
R:Reel
N:http://www.lesession.co.uk
Z:Steve Mansfield 1998-2001
K:D
Bc | d2 d2 d2 d2 | efed c2 A2 | BcdB ABAF | G2 E2 E2 c2 |
d2 d2 d2 d2 | efed c2 A2 | BcdB AGFE | D2 d2 d2 :: e2 | 
f2 f2 f2 f2 | fgag fe d2 | e2 e2 e2 e2 | efgf ed e2 | 
f2 f2 f2 f2 | fgag fe d2 | efgf edcB | A2 d2 d2 :|

